src/assets/Icons/logo.svg

<svg width="57" height="63" viewBox="0 0 57 63" fill="none" xmlns="http://www.w3.org/2000/svg">
<path d="M0 4.1288V51.0461C0 52.8907 1.10465 54.5106 2.70522 55.0172L27.4776 62.8423C28.1451 63.0526 28.8525 63.0526 29.52 62.8423L54.2924 55.0172C55.893 54.5106 56.9976 52.8907 56.9976 51.0461V4.1288C56.9976 1.84936 55.3289 0 53.2724 0H3.72526C1.66873 0 0 1.84936 0 4.1288Z" fill="#FD7E14"/>
<path d="M46.7713 46.4633L10.2285 36.5093V20.0156C10.2285 13.4138 15.512 9.48334 22.006 11.2515C24.3281 11.8846 26.5844 13.1964 28.5023 15.0099C30.4201 14.2429 32.6764 14.1593 34.9986 14.7901C41.4925 16.5582 46.776 23.3679 46.776 29.9696V46.4633H46.7713ZM14.0031 33.6994L42.9943 41.5962V28.9422C42.9943 24.4574 39.4054 19.8316 34.9939 18.6298C33.0619 18.1041 31.1957 18.3072 29.7385 19.2008L28.4976 19.963L27.2566 18.5246C25.7994 16.8354 23.9332 15.6168 22.0013 15.0888C17.5897 13.8869 14.0008 16.5582 14.0008 21.043V33.697L14.0031 33.6994Z" fill="white"/>
</svg>

<svg width="57" height="63" fill="none" xmlns="http://www.w3.org/2000/svg"><path d="M0 4.129v46.917c0 1.845 1.105 3.465 2.705 3.971l24.773 7.825c.667.21 1.374.21 2.042 0l24.772-7.825c1.601-.506 2.706-2.126 2.706-3.97V4.128c0-2.28-1.67-4.129-3.726-4.129H3.725C1.67 0 0 1.85 0 4.129Z" fill="#FD7E14"/><path d="M46.771 46.463 10.228 36.51V20.016c0-6.602 5.284-10.533 11.778-8.764 2.322.633 4.578 1.944 6.496 3.758 1.918-.767 4.174-.85 6.497-.22 6.493 1.768 11.777 8.578 11.777 15.18v16.493h-.005ZM14.003 33.7l28.991 7.897V28.942c0-4.485-3.589-9.11-8-10.312-1.932-.526-3.798-.323-5.256.57l-1.24.763-1.241-1.438c-1.458-1.69-3.324-2.908-5.256-3.436-4.411-1.202-8 1.47-8 5.954v12.654l.002.002Z" fill="#fff"/></svg>
